images/icons/notebook.svg

<svg width="75" height="52" viewBox="0 0 75 52" fill="none" xmlns="http://www.w3.org/2000/svg">
<g id="Group">
<path id="Vector" d="M66.3726 40.7732V5.8761C66.3726 5.58615 66.2575 5.30808 66.0524 5.10305C65.8474 4.89802 65.5693 4.78284 65.2794 4.78284H8.99171C8.70175 4.78284 8.42367 4.89802 8.21865 5.10305C8.01362 5.30808 7.89844 5.58615 7.89844 5.8761V40.7732C7.89844 41.0632 8.01362 41.3412 8.21865 41.5463C8.42367 41.7513 8.70175 41.8665 8.99171 41.8665H65.2794C65.5693 41.8665 65.8474 41.7513 66.0524 41.5463C66.2575 41.3412 66.3726 41.0632 66.3726 40.7732ZM64.1861 39.6799H10.085V6.96687H64.1861V39.6799Z" fill="black"/>
<path id="Vector_2" d="M73.1777 43.88H70.5739V4.48927C70.5729 3.4537 70.161 2.46083 69.4288 1.72857C68.6965 0.996308 67.7037 0.584488 66.6681 0.583496H7.60289C6.56732 0.584488 5.57445 0.996308 4.84219 1.72857C4.10993 2.46083 3.69811 3.4537 3.69712 4.48927V43.88H1.09327C0.803366 43.8802 0.525385 43.9954 0.320393 44.2004C0.115402 44.4054 0.000165516 44.6834 0 44.9733V47.679C0.00115747 48.7142 0.412898 49.7066 1.14489 50.4386C1.87688 51.1706 2.86934 51.5823 3.90453 51.5835H70.3664C71.4017 51.5825 72.3942 51.1708 73.1263 50.4388C73.8583 49.7068 74.27 48.7142 74.271 47.679V44.9733C74.271 44.6833 74.1558 44.4053 73.9508 44.2002C73.7457 43.9952 73.4677 43.88 73.1777 43.88ZM5.88365 4.48927C5.88399 4.0334 6.06523 3.5963 6.38757 3.27395C6.70992 2.9516 7.14703 2.77036 7.60289 2.77003H66.6681C67.124 2.77036 67.5611 2.9516 67.8834 3.27395C68.2058 3.5963 68.387 4.0334 68.3873 4.48927V43.88H45.3469C45.0569 43.88 44.7788 43.9952 44.5738 44.2002C44.3688 44.4053 44.2536 44.6833 44.2536 44.9733V45.5574H30.0174V44.9733C30.0172 44.6834 29.902 44.4054 29.697 44.2004C29.492 43.9954 29.214 43.8802 28.9241 43.88H5.88365V4.48927ZM72.0844 47.679C72.0839 48.1345 71.9028 48.5711 71.5807 48.8932C71.2586 49.2153 70.8219 49.3965 70.3664 49.397H3.90453C3.44909 49.3963 3.0125 49.2151 2.69045 48.893C2.36841 48.571 2.1872 48.1344 2.18654 47.679V46.0666H27.8308V46.6507C27.8308 46.9406 27.946 47.2187 28.1511 47.4237C28.3561 47.6288 28.6342 47.7439 28.9241 47.7439H45.3469C45.6368 47.7439 45.9149 47.6288 46.1199 47.4237C46.325 47.2187 46.4401 46.9406 46.4401 46.6507V46.0666H72.0844V47.679Z" fill="black"/>
</g>
</svg>

<svg xmlns="http://www.w3.org/2000/svg" width="75" height="52" fill="none"><g fill="#000"><path d="M66.373 40.773V5.876a1.093 1.093 0 0 0-1.094-1.093H8.992a1.093 1.093 0 0 0-1.094 1.093v34.897a1.093 1.093 0 0 0 1.094 1.093h56.287a1.093 1.093 0 0 0 1.094-1.093Zm-2.187-1.093H10.085V6.967h54.101V39.68Z"/><path d="M73.178 43.88h-2.604V4.49A3.91 3.91 0 0 0 66.668.582H7.603A3.91 3.91 0 0 0 3.697 4.49V43.88H1.093A1.094 1.094 0 0 0 0 44.973v2.706a3.909 3.909 0 0 0 3.905 3.904h66.461a3.909 3.909 0 0 0 3.905-3.904v-2.706a1.094 1.094 0 0 0-1.093-1.093ZM5.884 4.49a1.72 1.72 0 0 1 1.719-1.72h59.065a1.72 1.72 0 0 1 1.72 1.72v39.39H45.346a1.093 1.093 0 0 0-1.093 1.093v.584H30.017v-.584a1.094 1.094 0 0 0-1.093-1.093H5.884V4.49Zm66.2 43.189a1.72 1.72 0 0 1-1.718 1.718H3.905a1.72 1.72 0 0 1-1.718-1.718v-1.612H27.83v.584a1.093 1.093 0 0 0 1.093 1.093h16.423a1.093 1.093 0 0 0 1.093-1.093v-.584h25.644v1.612Z"/></g></svg>
